<?xml version="1.0" encoding="UTF-8"?>
<map version="1.11" tiledversion="1.12.2" orientation="orthogonal" renderorder="right-down" width="30" height="15" tilewidth="16" tileheight="18" infinite="0" nextlayerid="14" nextobjectid="6">
 <editorsettings>
  <export target="movie_title.lua" format="lua"/>
 </editorsettings>
 <properties>
  <property name="runphase" value="Dragontail.MoviePhase"/>
 </properties>
 <tileset firstgid="1" source="sprites/ui/title.tsx"/>
 <group id="10" name="TitleHit" class="Tiled.Movie">
  <properties>
   <property name="hitsound" type="file" value="sounds/combat/heavyswingandhit.ogg"/>
   <property name="script" value="Dragontail.Movie.Title"/>
  </properties>
  <objectgroup id="8" name="directions">
   <object id="1" name="path" x="520" y="36">
    <polyline points="0,0 -520,-36"/>
   </object>
  </objectgroup>
  <imagelayer id="2" name="bg">
   <image source="sprites/ui/title/illust/bg.png" width="480" height="270"/>
  </imagelayer>
  <group id="7" name="fg">
   <imagelayer id="3" name="enemy" offsetx="-20" offsety="-148.5">
    <image source="sprites/ui/title/illust/07 Thug_L.png" width="960" height="600"/>
   </imagelayer>
   <imagelayer id="5" name="hit" offsetx="-68" offsety="-112.5">
    <image source="sprites/ui/title/illust/08 effects L.png" width="960" height="600"/>
   </imagelayer>
   <group id="12" name="Rose">
    <imagelayer id="4" name="Rose" offsetx="-88" offsety="-121.5">
     <image source="sprites/ui/title/illust/09 Rose.png" width="960" height="600"/>
    </imagelayer>
    <imagelayer id="6" name="swing" offsetx="-156" offsety="-117">
     <image source="sprites/ui/title/illust/10 swipe.png" width="960" height="600"/>
    </imagelayer>
   </group>
  </group>
  <objectgroup id="11" name="title">
   <object id="3" name="Rose of" type="Gui.Button" x="16" y="112.5" width="136" height="49.5">
    <properties>
     <property name="action" value="restartStage"/>
     <property name="color2" type="color" value="#ffffd8d8"/>
     <property name="frequency" type="float" value="30"/>
     <property name="selectanimation" value="colorCycle"/>
    </properties>
    <text fontfamily="The Rumor" pixelsize="48" wrap="1" color="#e02121" halign="center" valign="bottom">ROSE of</text>
   </object>
   <object id="4" name="Dragontail" type="Gui.Button" x="32" y="162" width="196" height="49.5">
    <properties>
     <property name="action" value="restartStage"/>
     <property name="color2" type="color" value="#ffffd8d8"/>
     <property name="frequency" type="float" value="30"/>
     <property name="selectanimation" value="colorCycle"/>
    </properties>
    <text fontfamily="The Rumor" pixelsize="48" wrap="1" color="#e02121" halign="center" valign="bottom">DRAGONTAIL</text>
   </object>
   <object id="5" name="Rising Tide 4" type="Gui.Button" x="48" y="216" width="144" height="36">
    <properties>
     <property name="action" value="restartStage"/>
     <property name="color2" type="color" value="#ffffd8d8"/>
     <property name="frequency" type="float" value="30"/>
     <property name="selectanimation" value="colorCycle"/>
    </properties>
    <text fontfamily="The Rumor" pixelsize="32" wrap="1" color="#e02121" halign="center" valign="bottom">Rising Tide 4</text>
   </object>
  </objectgroup>
 </group>
</map>
