<?xml version="1.0" encoding="UTF-8"?>
<map version="1.11" tiledversion="1.12.2" orientation="orthogonal" renderorder="right-down" width="30" height="15" tilewidth="16" tileheight="18" infinite="0" nextlayerid="21" nextobjectid="15">
 <editorsettings>
  <export target="movies_pr.lua" format="lua"/>
 </editorsettings>
 <properties>
  <property name="runphase" value="Dragontail.MoviePhase"/>
 </properties>
 <group id="7" name="trailerstart" class="Tiled.Movie" tintcolor="#ffffff">
  <properties>
   <property name="hitsound" type="file" value="sounds/combat/heavyswingandhit.ogg"/>
   <property name="script" value="Dragontail.Movie.TitleHit"/>
  </properties>
  <objectgroup id="8" name="directions" tintcolor="#ffffff">
   <object id="2" name="path" x="520" y="36">
    <polyline points="0,0 -520,-36"/>
   </object>
  </objectgroup>
  <imagelayer id="9" name="bg" tintcolor="#ffffff">
   <image source="sprites/ui/title/illust/bg.png" width="480" height="270"/>
  </imagelayer>
  <group id="10" name="fg" tintcolor="#ffffff">
   <imagelayer id="11" name="enemy" tintcolor="#ffffff" offsetx="-20" offsety="-148.5">
    <image source="sprites/ui/title/illust/07 Thug_L.png" width="960" height="600"/>
   </imagelayer>
   <imagelayer id="12" name="hit" tintcolor="#ffffff" offsetx="-68" offsety="-112.5">
    <image source="sprites/ui/title/illust/08 effects L.png" width="960" height="600"/>
   </imagelayer>
   <imagelayer id="14" name="Rose" tintcolor="#ffffff" offsetx="-88" offsety="-121.5">
    <image source="sprites/ui/title/illust/09 Rose.png" width="960" height="600"/>
   </imagelayer>
   <imagelayer id="15" name="swing" tintcolor="#ffffff" offsetx="-156" offsety="-117">
    <image source="sprites/ui/title/illust/10 swipe.png" width="960" height="600"/>
   </imagelayer>
  </group>
  <group id="20" name="shaking">
   <objectgroup id="16" name="title" tintcolor="#ffffff">
    <object id="3" name="Rose of" type="Gui.Button" x="16" y="112.5" width="180" height="49.5">
     <properties>
      <property name="action" value="restartStage"/>
      <property name="color2" type="color" value="#ffff6b6b"/>
      <property name="frequency" type="float" value="30"/>
      <property name="selectanimation" value="colorCycle"/>
     </properties>
     <text fontfamily="The Rumor" pixelsize="48" wrap="1" color="#e02121" halign="center" valign="bottom">ROSE of</text>
    </object>
    <object id="4" name="Dragontail" type="Gui.Button" x="32" y="162" width="244" height="49.5">
     <properties>
      <property name="action" value="restartStage"/>
      <property name="color2" type="color" value="#ffff6b6b"/>
      <property name="frequency" type="float" value="30"/>
      <property name="selectanimation" value="colorCycle"/>
     </properties>
     <text fontfamily="The Rumor" pixelsize="48" wrap="1" color="#e02121" halign="center" valign="bottom">DRAGONTAIL</text>
    </object>
    <object id="5" name="Rising Tide 4" type="Gui.Button" x="48" y="211.5" width="184" height="36">
     <properties>
      <property name="action" value="restartStage"/>
      <property name="color2" type="color" value="#ffff6b6b"/>
      <property name="frequency" type="float" value="30"/>
      <property name="selectanimation" value="colorCycle"/>
     </properties>
     <text fontfamily="The Rumor" pixelsize="32" wrap="1" color="#e02121" halign="center" valign="bottom">Demo 2026.2</text>
    </object>
   </objectgroup>
  </group>
 </group>
 <group id="2" name="trailerend" class="Tiled.Movie" visible="0" tintcolor="#ffffff">
  <properties>
   <property name="script" value="Dragontail.Movie.End"/>
   <property name="swipesound" type="file" value="sounds/combat/heavyswingandhit.ogg"/>
   <property name="voice" type="file" value="sounds/player/victory2.mp3"/>
  </properties>
  <imagelayer id="18" name="bg" tintcolor="#ffffff">
   <image source="sprites/ui/title/illust/bg.png" width="480" height="270"/>
  </imagelayer>
  <group id="6" name="Rose">
   <imagelayer id="3" name="Rose" tintcolor="#ffffff" offsetx="-276" offsety="-112.5">
    <image source="sprites/ui/title/illust/09 Rose.png" width="960" height="600"/>
   </imagelayer>
   <imagelayer id="4" name="swipe" tintcolor="#ffffff" offsetx="-320" offsety="-103.5">
    <image source="sprites/ui/title/illust/10 swipe.png" width="960" height="600"/>
   </imagelayer>
  </group>
  <objectgroup id="5" name="direction">
   <object id="1" name="path" x="0" y="0">
    <polyline points="180,310.5 148,202.5 100,108 44,36 0,0"/>
   </object>
  </objectgroup>
  <objectgroup id="17" name="shaking">
   <object id="7" name="PLAY THE DEMO" type="Gui.Button" x="276" y="54" width="180" height="108">
    <properties>
     <property name="action" value="restartStage"/>
     <property name="color2" type="color" value="#ffffd8d8"/>
     <property name="frequency" type="float" value="30"/>
     <property name="selectanimation" value="colorCycle"/>
    </properties>
    <text fontfamily="The Rumor" pixelsize="48" wrap="1" color="#e02121" halign="center" valign="bottom">KICK TAIL WITH TAIL</text>
   </object>
   <object id="12" template="gui/menu/Panel.tx" name="bar" x="280" y="171" width="176" height="27">
    <properties>
     <property name="roundcorners" type="float" value="4"/>
    </properties>
   </object>
   <object id="9" name="Rate &amp; Comment" x="292" y="175.5" width="156" height="22.5">
    <text fontfamily="Silver" pixelsize="19" wrap="1" color="#ffffff" halign="center" valign="center">ioribranford.com/dragontail</text>
   </object>
   <object id="13" name="at" x="292" y="153" width="156" height="18">
    <text fontfamily="Silver" pixelsize="19" wrap="1" color="#ffffff" halign="center">at</text>
   </object>
  </objectgroup>
  <objectgroup id="19" name="copyright">
   <object id="14" name="copyright" x="44" y="193.5" width="412" height="58.5">
    <text fontfamily="TinyUnicode" wrap="1" color="#ffffff" halign="right" valign="bottom">(C) 2026 IORI BRANFORD
MUSIC (C) 2009, 2013 BLUE WAVE THEORY
USED UNDER CREATIVE COMMONS ATTRIBUTION SHARE-ALIKE LICENSE</text>
   </object>
  </objectgroup>
 </group>
</map>
