<?xml version="1.0" encoding="UTF-8"?>
<map version="1.11" tiledversion="1.12.2" orientation="orthogonal" renderorder="right-down" width="30" height="15" tilewidth="16" tileheight="18" infinite="0" nextlayerid="7" nextobjectid="2">
 <editorsettings>
  <export target="movies_gameplay.lua" format="lua"/>
 </editorsettings>
 <properties>
  <property name="runphase" value="Dragontail.MoviePhase"/>
 </properties>
 <group id="2" name="victory" class="Tiled.Movie" tintcolor="#ffffff" offsetx="-264" offsety="-153">
  <properties>
   <property name="script" value="Dragontail.Movie.RoseUppercut"/>
   <property name="swipesound" type="file" value="sounds/combat/heavyswingandhit.ogg"/>
   <property name="voice" type="file" value="sounds/player/victory2.mp3"/>
  </properties>
  <group id="6" name="Rose">
   <imagelayer id="3" name="Rose" tintcolor="#ffffff">
    <image source="sprites/ui/title/illust/09 Rose.png" width="960" height="600"/>
   </imagelayer>
   <imagelayer id="4" name="swipe" tintcolor="#ffffff" offsetx="-44" offsety="9">
    <image source="sprites/ui/title/illust/10 swipe.png" width="960" height="600"/>
   </imagelayer>
  </group>
  <objectgroup id="5" name="direction">
   <object id="1" name="path" x="264" y="153">
    <polyline points="180,310.5 148,202.5 100,108 44,36 0,0"/>
   </object>
  </objectgroup>
 </group>
</map>
