<?xml version="1.0" encoding="UTF-8"?>
<map version="1.11" tiledversion="1.12.2" orientation="orthogonal" renderorder="right-down" width="30" height="15" tilewidth="16" tileheight="18" infinite="0" nextlayerid="34" nextobjectid="238">
 <editorsettings>
  <export target="hud_combat.lua" format="lua"/>
 </editorsettings>
 <properties>
  <property name="draworder" type="float" value="50"/>
 </properties>
 <tileset firstgid="1" source="../tilesets/ui/rose-face.tsx"/>
 <tileset firstgid="5" source="../tilesets/ui/gamepad-buttons.tsx"/>
 <tileset firstgid="105" source="../tilesets/ui/flamegaugefull.tsx"/>
 <tileset firstgid="113" source="../tilesets/ui/weapon-frame.tsx"/>
 <tileset firstgid="119" source="../sprites/ui/go-arrow-small.tsx"/>
 <tileset firstgid="128" source="../sprites/ui/go-word.tsx"/>
 <tileset firstgid="137" source="../sprites/ui/break-grab.tsx"/>
 <tileset firstgid="141" source="../tilesets/ui/Gamepad Spritesheets/Xbox.tsx"/>
 <tileset firstgid="161" source="../sprites/ui/go-arrowhead.tsx"/>
 <tileset firstgid="177" source="../tilesets/ui/rose-face2.tsx"/>
 <tileset firstgid="178" source="../../ccdata/sprites/bandit/boss.tsx"/>
 <objectgroup draworder="index" id="2" name="hud">
  <object id="4" name="run" type="Gui.Gauge" x="52" y="33" width="100" height="8" visible="0">
   <properties>
    <property name="color" type="color" value="#ff8080ff"/>
    <property name="z" type="float" value="0"/>
   </properties>
  </object>
  <object id="6" name="runbox" x="52" y="33" width="100" height="8" visible="0">
   <properties>
    <property name="color" type="color" value="#00000000"/>
    <property name="linecolor" type="color" value="#ffc0c0ff"/>
    <property name="roundcorners" type="float" value="2"/>
    <property name="z" type="float" value="1"/>
   </properties>
  </object>
  <object id="3" name="health" type="Gui.Gauge" x="44" y="3" width="100" height="9">
   <properties>
    <property name="color" type="color" value="#ffff1f1f"/>
    <property name="roundcorners" type="float" value="1"/>
   </properties>
  </object>
  <object id="5" name="healthbox" x="44" y="3" width="100" height="9">
   <properties>
    <property name="color" type="color" value="#00000000"/>
    <property name="linecolor" type="color" value="#ffffffff"/>
    <property name="roundcorners" type="float" value="2"/>
   </properties>
  </object>
  <object id="1" name="portrait" gid="177" x="14" y="27" width="60" height="27"/>
  <object id="2" name="portraitbox" x="-16" y="0" width="60" height="27">
   <properties>
    <property name="color" type="color" value="#00000000"/>
    <property name="linecolor" type="color" value="#ffffffff"/>
    <property name="roundcorners" type="float" value="2"/>
   </properties>
  </object>
  <object id="30" name="flame1" type="Gui.Gauge" x="47" y="17" width="30" height="6">
   <properties>
    <property name="color" type="color" value="#ffffaa00"/>
    <property name="fullcolor" type="color" value="#ffffd000"/>
    <property name="normalcolor" type="color" value="#ffffaa00"/>
   </properties>
  </object>
  <object id="59" name="flamecharge1" type="Gui.Gauge" x="47" y="17" width="30" height="6">
   <properties>
    <property name="color" type="color" value="#ffffffff"/>
   </properties>
  </object>
  <object id="31" name="flame2" type="Gui.Gauge" x="80" y="17" width="30" height="6">
   <properties>
    <property name="color" type="color" value="#ffffaa00"/>
    <property name="fullcolor" type="color" value="#ffffd000"/>
    <property name="normalcolor" type="color" value="#ffffaa00"/>
   </properties>
  </object>
  <object id="58" name="flamecharge2" type="Gui.Gauge" x="80" y="17" width="30" height="6">
   <properties>
    <property name="color" type="color" value="#ffffffff"/>
   </properties>
  </object>
  <object id="32" name="flame3" type="Gui.Gauge" x="113" y="17" width="30" height="6">
   <properties>
    <property name="color" type="color" value="#ffffaa00"/>
    <property name="fullcolor" type="color" value="#ffffd000"/>
    <property name="normalcolor" type="color" value="#ffffaa00"/>
   </properties>
  </object>
  <object id="57" name="flamecharge3" type="Gui.Gauge" x="113" y="17" width="30" height="6">
   <properties>
    <property name="color" type="color" value="#ffffffff"/>
   </properties>
  </object>
  <object id="33" name="flamebox" x="47" y="17" width="30" height="6">
   <properties>
    <property name="color" type="color" value="#00000000"/>
    <property name="linecolor" type="color" value="#ffffffff"/>
    <property name="roundcorners" type="float" value="1"/>
   </properties>
  </object>
  <object id="34" name="flamebox" x="80" y="17" width="30" height="6">
   <properties>
    <property name="color" type="color" value="#00000000"/>
    <property name="linecolor" type="color" value="#ffffffff"/>
    <property name="roundcorners" type="float" value="1"/>
   </properties>
  </object>
  <object id="35" name="flamebox" x="113" y="17" width="30" height="6">
   <properties>
    <property name="color" type="color" value="#00000000"/>
    <property name="linecolor" type="color" value="#ffffffff"/>
    <property name="roundcorners" type="float" value="1"/>
   </properties>
  </object>
  <object id="36" name="flamefullcharge1" gid="105" x="42" y="28" width="40" height="20"/>
  <object id="37" name="flamefullcharge2" gid="105" x="75" y="28" width="40" height="20"/>
  <object id="38" name="flamefullcharge3" gid="105" x="108" y="28" width="40" height="20"/>
  <object id="29" name="development ver" x="0" y="261" width="480" height="9">
   <text fontfamily="TinyUnicode" wrap="1" color="#ffffff" halign="center" valign="bottom">DEVELOPMENT VER 0.0.0 - ALL CONTENT SUBJECT TO CHANGE</text>
  </object>
  <object id="137" name="clearenemiesprompt" x="80" y="54" width="320" height="54" visible="0">
   <text fontfamily="Unifont" wrap="1" color="#ffffff" halign="center" valign="center">Push SELECT button or DELETE key
to clear lost enemies</text>
  </object>
 </objectgroup>
 <objectgroup id="16" name="hud_breakgrab">
  <object id="99" name="gaugex" x="-24" y="-40" width="48" height="4">
   <properties>
    <property name="color" type="color" value="#00000000"/>
    <property name="linecolor" type="color" value="#ffffffff"/>
   </properties>
  </object>
  <object id="100" name="gaugey" x="12" y="-48" width="4" height="48">
   <properties>
    <property name="color" type="color" value="#00000000"/>
    <property name="linecolor" type="color" value="#ffffffff"/>
   </properties>
  </object>
  <object id="95" name="gauger" type="Gui.Gauge" x="0" y="-40" width="24" height="4">
   <properties>
    <property name="color" type="color" value="#ffffffff"/>
   </properties>
  </object>
  <object id="97" name="gauged" type="Gui.Gauge" x="12" y="-24" width="4" height="24">
   <properties>
    <property name="color" type="color" value="#ffffffff"/>
    <property name="gaugedirection" propertytype="GaugeDirection" value="down"/>
   </properties>
  </object>
  <object id="96" name="gaugel" type="Gui.Gauge" x="-24" y="-40" width="24" height="4">
   <properties>
    <property name="color" type="color" value="#ffffffff"/>
    <property name="gaugedirection" propertytype="GaugeDirection" value="left"/>
   </properties>
  </object>
  <object id="98" name="gaugeu" type="Gui.Gauge" x="12" y="-48" width="4" height="24">
   <properties>
    <property name="color" type="color" value="#ffffffff"/>
    <property name="gaugedirection" propertytype="GaugeDirection" value="up"/>
   </properties>
  </object>
  <object id="94" name="prompt" gid="137" x="0" y="0" width="48" height="48"/>
 </objectgroup>
 <objectgroup id="22" name="hud_goarrows" visible="0" offsetx="360" offsety="135">
  <object id="155" gid="161" x="-52" y="0" width="16" height="16"/>
  <object id="156" gid="162" x="-40" y="0" width="16" height="16"/>
  <object id="157" gid="163" x="-28" y="0" width="16" height="16"/>
  <object id="158" gid="164" x="-16" y="0" width="16" height="16"/>
  <object id="159" gid="165" x="20" y="0" width="16" height="16"/>
  <object id="160" gid="166" x="32" y="0" width="16" height="16"/>
  <object id="161" gid="167" x="44" y="0" width="16" height="16"/>
  <object id="162" gid="168" x="56" y="0" width="16" height="16"/>
 </objectgroup>
 <objectgroup draworder="index" id="14" name="hud_go" offsetx="360" offsety="135">
  <object id="70" name="arrow" gid="119" x="0" y="0" width="100" height="20"/>
  <object id="71" name="word" gid="128" x="0" y="0" width="48" height="32"/>
 </objectgroup>
 <objectgroup id="12" name="hud_weaponslots" offsetx="32" offsety="72">
  <object id="43" name="fullslot1" gid="113" x="-12" y="-18" width="24" height="24"/>
  <object id="44" name="fullslot2" gid="115" x="12" y="-18" width="24" height="24"/>
  <object id="39" name="emptyslot1" gid="116" x="-12" y="-18" width="24" height="24"/>
  <object id="40" name="emptyslot2" gid="118" x="12" y="-18" width="24" height="24"/>
  <object id="51" name="2slotweapon1" gid="117" x="0" y="-18" width="24" height="24">
   <properties>
    <property name="animationspeed" type="float" value="0"/>
   </properties>
  </object>
  <object id="47" name="1slotweapon1" gid="117" x="-12" y="-18" width="24" height="24">
   <properties>
    <property name="animationspeed" type="float" value="0"/>
   </properties>
  </object>
  <object id="48" name="1slotweapon2" gid="117" x="12" y="-18" width="24" height="24">
   <properties>
    <property name="animationspeed" type="float" value="0"/>
   </properties>
  </object>
 </objectgroup>
 <objectgroup id="33" name="hud_boss">
  <object id="232" name="health" type="Gui.Gauge" x="198" y="252" width="250" height="9">
   <properties>
    <property name="color" type="color" value="#ffff1f1f"/>
    <property name="gaugedirection" propertytype="GaugeDirection" value="left"/>
    <property name="roundcorners" type="float" value="1"/>
    <property name="z" type="float" value="0"/>
   </properties>
  </object>
  <object id="233" name="healthbox" x="198" y="252" width="250" height="9">
   <properties>
    <property name="color" type="color" value="#00000000"/>
    <property name="linecolor" type="color" value="#ffffffff"/>
    <property name="roundcorners" type="float" value="2"/>
    <property name="z" type="float" value="2"/>
   </properties>
  </object>
  <object id="234" gid="2147483826" x="464" y="288" width="192" height="192"/>
 </objectgroup>
 <objectgroup draworder="index" id="13" name="input">
  <object id="67" name="joystickdirection" x="55" y="243">
   <properties>
    <property name="color" type="color" value="#ffffffff"/>
    <property name="linecolor" type="color" value="#ffc0c0c0"/>
   </properties>
   <polygon points="0,0 0,-4.5 16,0 0,4.5"/>
  </object>
  <object id="60" name="joystick" gid="9" x="48" y="251" width="16" height="16"/>
  <object id="61" name="attackbutton" gid="145" x="128" y="234" width="14" height="14"/>
  <object id="145" name="jumpbutton" gid="141" x="144" y="252" width="14" height="14"/>
  <object id="68" name="attackbuttondown" gid="146" x="128" y="234" width="14" height="14"/>
  <object id="144" name="jumpbuttondown" gid="142" x="144" y="252" width="14" height="14"/>
  <object id="62" name="sprintbutton" gid="155" x="144" y="216" width="14" height="14"/>
  <object id="69" name="sprintbuttondown" gid="156" x="144" y="216" width="14" height="14"/>
  <object id="63" name="Move" x="80" y="234" width="20" height="18">
   <text fontfamily="TinyUnicode" wrap="1" color="#ffffff">MOVE</text>
  </object>
  <object id="64" name="Attack" x="144" y="225" width="64" height="18">
   <text fontfamily="TinyUnicode" wrap="1" color="#ffffff">ATTACK</text>
  </object>
  <object id="143" name="Jump" x="160" y="243" width="64" height="18">
   <text fontfamily="TinyUnicode" wrap="1" color="#ffffff">JUMP</text>
  </object>
  <object id="65" name="Sprint" x="160" y="207" width="64" height="18">
   <text fontfamily="TinyUnicode" wrap="1" color="#ffffff">SPRINT</text>
  </object>
 </objectgroup>
</map>
