<?xml version="1.0" encoding="UTF-8"?>
<map version="1.11" tiledversion="1.12.2" orientation="orthogonal" renderorder="right-down" width="30" height="15" tilewidth="16" tileheight="18" infinite="0" nextlayerid="35" nextobjectid="243">
 <editorsettings>
  <export target="menu_pause_combat.lua" format="lua"/>
 </editorsettings>
 <properties>
  <property name="draworder" type="float" value="100"/>
 </properties>
 <tileset firstgid="1" source="../sprites/ui/firespit.tsx"/>
 <objectgroup draworder="index" id="6" name="pausemenu" class="Gui.Menu">
  <properties>
   <property name="backaction" value="unpauseGame"/>
  </properties>
  <object id="8" name="name" x="192" y="54" width="96" height="18" visible="0">
   <text fontfamily="Unifont" wrap="1" color="#ffffff" halign="center">PAUSE</text>
  </object>
  <object id="74" template="menu/Cursor.tx" type="Gui.Cursor" x="124" y="108">
   <properties>
    <property name="alignx" type="float" value="0.5"/>
   </properties>
  </object>
  <object id="216" template="menu/Cursor.tx" type="Gui.Cursor" x="32" y="108" rotation="180">
   <properties>
    <property name="alignx" type="float" value="-0.5"/>
   </properties>
  </object>
  <object id="199" template="menu/mainmenu/Button.tx" x="32" y="90" width="92" height="36">
   <properties>
    <property name="action" value="unpauseGame"/>
   </properties>
   <text fontfamily="Alita Brush" pixelsize="32" wrap="1" color="#e02121" halign="center" valign="center">FIGHT!</text>
  </object>
  <object id="200" template="menu/mainmenu/Button.tx" x="40" y="126" width="112" height="36">
   <properties>
    <property name="action" value="openMenuMap"/>
    <property name="mapfile" type="file" value="menu_options_simple.lua"/>
    <property name="menupath" value="simple"/>
   </properties>
   <text fontfamily="Alita Brush" pixelsize="32" wrap="1" color="#e02121" halign="center" valign="center">OPTIONS</text>
  </object>
  <object id="201" template="menu/mainmenu/Button.tx" x="48" y="162" width="100" height="36">
   <properties>
    <property name="action" value="openMenu"/>
    <property name="guipath" value="retrymenu"/>
   </properties>
   <text fontfamily="Alita Brush" pixelsize="32" wrap="1" color="#e02121" halign="center" valign="center">RETRY</text>
  </object>
  <object id="202" template="menu/mainmenu/Button.tx" x="56" y="198" width="60" height="36">
   <properties>
    <property name="action" value="returnToTitle"/>
   </properties>
   <text fontfamily="Alita Brush" pixelsize="32" wrap="1" color="#e02121" halign="center" valign="center">END</text>
  </object>
  <object id="217" template="menu/mainmenu/Button.tx" x="64" y="234" width="24" height="36">
   <properties>
    <property name="action" value="openMenuMap"/>
    <property name="mapfile" type="file" value="menu_debug.lua"/>
    <property name="menupath" value="debugmenu"/>
   </properties>
   <text fontfamily="Alita Brush" pixelsize="32" wrap="1" color="#e02121" halign="center" valign="center">...</text>
  </object>
 </objectgroup>
 <objectgroup id="34" name="retrymenu" class="Gui.Menu">
  <properties>
   <property name="backaction" value="closeMenu"/>
  </properties>
  <object id="238" template="menu/Panel.tx" x="136" y="90" width="208" height="90"/>
  <object id="239" template="menu/pause/Button.tx" name="Restart checkpoint" type="Gui.Button" x="184" y="99" width="144" height="18">
   <properties>
    <property name="action" value="restartStage"/>
   </properties>
   <text fontfamily="Unifont" wrap="1" color="#ffffff">Last checkpoint</text>
  </object>
  <object id="240" template="menu/pause/Button.tx" name="Restart stage" type="Gui.Button" x="184" y="126" width="144" height="18">
   <properties>
    <property name="action" value="restartStage"/>
    <property name="checkpoint" type="bool" value="false"/>
   </properties>
   <text fontfamily="Unifont" wrap="1" color="#ffffff">Stage start</text>
  </object>
  <object id="241" template="menu/pause/Button.tx" name="Cancel" type="Gui.Button" x="184" y="153">
   <properties>
    <property name="action" value="closeMenu"/>
   </properties>
   <text fontfamily="Unifont" wrap="1" color="#ffffff">Cancel</text>
  </object>
  <object id="242" template="menu/Cursor.tx" type="Gui.Cursor" x="152" y="108"/>
 </objectgroup>
</map>
