<?xml version="1.0" encoding="UTF-8"?>
<map version="1.11" tiledversion="1.12.2" orientation="orthogonal" renderorder="right-down" width="30" height="15" tilewidth="16" tileheight="18" infinite="0" nextlayerid="37" nextobjectid="239">
 <editorsettings>
  <export target="menu_stage_clear.lua" format="lua"/>
 </editorsettings>
 <properties>
  <property name="z" type="float" value="100"/>
 </properties>
 <tileset firstgid="1" source="../sprites/ui/firespit.tsx"/>
 <group id="31" name="movie">
  <properties>
   <property name="swipesound" type="file" value="../sounds/combat/heavyswingandhit.ogg"/>
   <property name="voice" type="file" value="../sounds/player/victory2.mp3"/>
  </properties>
  <group id="35" name="Rose" offsetx="-276" offsety="-112.5">
   <imagelayer id="29" name="Rose">
    <image source="../sprites/ui/title/illust/09 Rose.png" width="960" height="600"/>
   </imagelayer>
   <imagelayer id="30" name="swipe" offsetx="-44" offsety="9">
    <image source="../sprites/ui/title/illust/10 swipe.png" width="960" height="600"/>
   </imagelayer>
  </group>
  <objectgroup id="34" name="direction">
   <object id="218" name="path" x="0" y="0">
    <polyline points="180,310.5 148,202.5 100,108 44,36 0,0"/>
   </object>
  </objectgroup>
  <group id="36" name="shaking"/>
 </group>
 <objectgroup id="26" name="menu" class="Gui.Menu">
  <object id="192" template="menu/Cursor.tx" type="Gui.Cursor" x="416" y="81">
   <properties>
    <property name="alignx" type="float" value="0.75"/>
   </properties>
  </object>
  <object id="195" template="menu/Cursor.tx" type="Gui.Cursor" x="248" y="81" rotation="180">
   <properties>
    <property name="alignx" type="float" value="-0.75"/>
   </properties>
  </object>
  <object id="193" template="menu/mainmenu/Button.tx" x="248" y="171" width="176" height="36">
   <properties>
    <property name="action" value="returnToTitle"/>
   </properties>
   <text fontfamily="The Rumor" pixelsize="32" wrap="1" color="#e02121" halign="center" valign="center">BACK TO TITLE</text>
  </object>
  <object id="196" template="menu/mainmenu/Button.tx" x="256" y="117" width="180" height="36">
   <properties>
    <property name="action" value="openURL"/>
    <property name="url" value="https://ioribranford.itch.io/rose-of-dragontail"/>
   </properties>
   <text fontfamily="The Rumor" pixelsize="32" wrap="1" color="#e02121" halign="center" valign="center">VISIT WEBSITE</text>
  </object>
  <object id="194" template="menu/mainmenu/Button.tx" x="248" y="63" width="168" height="36">
   <properties>
    <property name="action" value="restartStage"/>
   </properties>
   <text fontfamily="The Rumor" pixelsize="32" wrap="1" color="#e02121" halign="center" valign="center">FIGHT AGAIN</text>
  </object>
  <object id="197" name="Rate &amp; Comment" x="308" y="144" width="87.7188" height="21.7813">
   <text fontfamily="Silver" pixelsize="19" wrap="1" color="#ffffff">Rate &amp; Comment</text>
  </object>
 </objectgroup>
</map>
